flags/european_union.svg

<svg width="512" height="512" viewBox="0 0 512 512" fill="none" xmlns="http://www.w3.org/2000/svg">
<rect width="512" height="512" fill="var(--flag-palette-blue, #0052b4)"/>
<path d="M376.678 78.4331L389.45 117.742H430.782L397.344 142.036L410.116 181.344L376.678 157.05L343.24 181.344L356.012 142.036L322.574 117.742H363.906L376.678 78.4331Z" fill="var(--flag-palette-dark-yellow, #ffc635)"/>
<path d="M426.664 199.109L439.437 238.418H480.768L447.33 262.712L460.102 302.021L426.664 277.727L393.226 302.021L405.999 262.712L372.561 238.418H413.892L426.664 199.109Z" fill="var(--flag-palette-dark-yellow, #ffc635)"/>
<path d="M376.678 319.789L389.45 359.098H430.782L397.344 383.392L410.116 422.7L376.678 398.406L343.24 422.7L356.012 383.392L322.574 359.098H363.906L376.678 319.789Z" fill="var(--flag-palette-dark-yellow, #ffc635)"/>
<path d="M256 369.776L268.772 409.085H310.104L276.666 433.379L289.438 472.687L256 448.393L222.562 472.687L235.335 433.379L201.897 409.085H243.228L256 369.776Z" fill="var(--flag-palette-dark-yellow, #ffc635)"/>
<path d="M135.323 319.789L148.095 359.098H189.426L155.988 383.392L168.76 422.7L135.323 398.406L101.885 422.7L114.657 383.392L81.2189 359.098H122.55L135.323 319.789Z" fill="var(--flag-palette-dark-yellow, #ffc635)"/>
<path d="M85.3362 199.109L98.1084 238.418H139.44L106.002 262.712L118.774 302.021L85.3362 277.727L51.8983 302.021L64.6705 262.712L31.2325 238.418H72.5641L85.3362 199.109Z" fill="var(--flag-palette-dark-yellow, #ffc635)"/>
<path d="M135.323 78.4331L148.095 117.742H189.426L155.988 142.036L168.76 181.344L135.323 157.05L101.885 181.344L114.657 142.036L81.2189 117.742H122.55L135.323 78.4331Z" fill="var(--flag-palette-dark-yellow, #ffc635)"/>
<path d="M256 28.4463L268.772 67.7549H310.104L276.666 92.049L289.438 131.358L256 107.064L222.562 131.358L235.335 92.049L201.897 67.7549H243.228L256 28.4463Z" fill="var(--flag-palette-dark-yellow, #ffc635)"/>
</svg>

<svg xmlns="http://www.w3.org/2000/svg" width="512" height="512" fill="none"><path fill="var(--flag-palette-blue, #0052b4)" d="M0 0h512v512H0z"/><path fill="var(--flag-palette-dark-yellow, #ffc635)" d="m376.7 78.4 12.8 39.3h41.3L397.3 142l12.8 39.3-33.4-24.2-33.5 24.2L356 142l-33.4-24.3h41.3zm50 120.7 12.7 39.3h41.4l-33.5 24.3 12.8 39.3-33.4-24.3-33.5 24.3 12.8-39.3-33.4-24.3h41.3zm-50 120.7 12.8 39.3h41.3l-33.5 24.3 12.8 39.3-33.4-24.3-33.5 24.3 12.8-39.3-33.4-24.3h41.3zm-120.7 50 12.8 39.3H310l-33.4 24.3 12.7 39.3-33.4-24.3-33.4 24.3 12.7-39.3L202 409h41.3zm-120.7-50 12.8 39.3h41.3L156 383.4l12.8 39.3-33.5-24.3-33.4 24.3 12.8-39.3L81.2 359h41.3zm-50-120.7 12.8 39.3h41.3L106 262.7l12.8 39.3-33.5-24.3L52 302l12.8-39.3-33.5-24.3h41.4zm50-120.7 12.8 39.3h41.3L156 142l12.8 39.3-33.5-24.2-33.4 24.2 12.8-39.3-33.5-24.3h41.3zm120.7-50 12.8 39.4H310L276.7 92l12.7 39.4L256 107l-33.4 24.3L235.3 92 202 67.8h41.3z"/></svg>
